!!!!SEGMENT: pl-wn--mus-iii-105-719-1--010_zelenski-wladyslaw--25-preludyi-op-38-10-andante.krn
!!!cenid: 18xx:3743
!!!COM: Żeleński, Władysław
!!!COM-rismID: pe41024455
!!!CDT:
!!!CNT:
!!!GTL: 25 preludyi op. 38
!!!OTL: 10. Andante
!!!PDT: 1881
!!!AGN:
!!!SMS-siglum: PL-Wn
!!!SMS-shelfmark: Mus.III.105.719/1
!!!SMS-shelfwork: 010 G
!!!SMS-variant:
!!!SMS-altvar:
!!!NIFC-rismSourceID:
!!!NIFC-islandoraID:
!!!URL-pdf-islandora:
!!!URL-scan: https://polona.pl/item/25-preludyi-2-3-i-4-glosowych-na-organ-lub-fisharmonike-do-uzytku-organistow-i,ODE1NjEwMzc/2/#info:metadata @EN{Scan on Polona} @PL{Skany w portalu Polona}
!!!ONB-nifc:
!!!OMD: Andante.
!!!AIN: 2 organ
!!!key: A-
**kern	**fing	**kern	**dynam	**fing
*part2	*	*part1	*part1	*
*staff2	*	*staff1	*	*
*I"[Organ / Fisharmonika]	*	*I"[Organ / Fisharmonika]	*	*
*I'	*	*I'	*	*
*Iorgan	*	*Iorgan	*	*
*ICklav	*	*ICklav	*	*
*clefF4	*	*clefG2	*	*
*k[b-e-a-d-]	*	*k[b-e-a-d-]	*	*
*A-:	*	*A-:	*	*
*M3/4	*	*M3/4	*	*
=1	=1	=1	=1	=1
*	*	*^	*	*
*	*below	*	*	*	*
!	!	!LO:TX:iB:a:t=1):cały ustep powinien być granym bardzo łagodnie 8 stopowemi głosami. / Das ganze Stück soll sehr zart behandelt werden. Nur sanfte 8 Fuſsstimmen können hier benützt werden.:footnote	!	!	!
!	!	!LO:TX:b:i:t=dolce e molto legato	!	!	!
(2.AA-/	3	(4e-/	2.c\	.	2
.	.	4cc/	.	.	5
.	.	4a-/	.	.	4
=2	=2	=2	=2	=2	=2
2.BB-/	2	4g/	2.d-\	.	3
.	.	4f/	.	.	2
.	.	4g/	.	.	4
=3	=3	=3	=3	=3	=3
2.C/	1	4a-/	2.e-\	.	2
.	.	4ee-/	.	.	.
.	.	4cc/	.	.	.
=4	=4	=4	=4	=4	=4
2.D-/	2	4b-/	2.f\	.	3
.	.	4a-/	.	.	2
.	.	4g/	.	.	3
=5	=5	=5	=5	=5	=5
*	*	*	*	*	*^
2.C/	5	4cc/	2.en\	.	5	2_1
.	.	4g/	.	.	3	.
.	.	[4b-/	.	<	5	.
*	*	*	*	*	*v	*v
=6	=6	=6	=6	=6	=6
*^	*	*	*	*	*
*	*	*	*	*	*	*below
2Dn/	2.Dn\	4	4b-/]	2.f\	.	2
.	.	.	4a-/	.	.	.
*	*	*above	*	*	*	*
[4A-/	.	2	4f/	.	.	1
*	*	*	*v	*v	*	*
=7	=7	=7	=7	=7	=7
*	*	*below	*	*	*
4A-/]	2.E-\	3	[2.e-/	.	.
*	*	*above	*	*	*
4G/	.	1	.	.	.
4F/	.	2	.	[[	.
=8	=8	=8	=8	=8	=8
4G/	4E-\	.	4e-/]	>	.
4A-/	4Dn\	2 4	4f/	.	3
4B-/	4D-X\)	1 5	4g/)	]]	4
*v	*v	*	*	*	*
=9	=9	=9	=9	=9
*	*	*^	*	*
*	*below	*	*	*	*above
(<4C/	3	(4a-/	([2.e-\	pp	3
4AA-/	.	4cc/	.	.	5
4F\	.	4a-/	.	.	4
=10	=10	=10	=10	=10	=10
*	*	*	*	*	*^
!	!	!LO:TX:b:i:t=	!	!LO:HP:t=cresc. poco a poco	!	!
2BB-/	4	2f/	4e-\]	<	3	2
.	.	.	4dn\	.	.	1
4C/	3	[4a-/	4c\	.	5	2
=11	=11	=11	=11	=11	=11	=11
2Dn\	2	4a-/]	2Bn\	.	.	.
.	.	4g/	.	.	5	.
4BBn/	4	4f/	[4dn\	.	4	2
=12	=12	=12	=12	=12	=12	=12
2C/	3	2e-/)	4d\]	.	.	.
.	.	.	4c\	.	.	1
4AAn/	5	(4cc/	4e-\)	.	5	2
=13	=13	=13	=13	=13	=13	=13
4BB-/	4	2b-/	4dn\	.	5_4	1
4C/	3	.	4e-\	.	.	2
4Dn/	2	4a-/	[4f\	.	4	1
!!linebreak:original
=14	=14	=14	=14	=14	=14	=14
2E-\	1	2g/)	4f\]	.	3	2
.	.	.	4e-\	.	.	1
4C/	2	([4ee-/	4g\	>	.	2
=15	=15	=15	=15	=15	=15	=15
4AA-/	3	2ee-/]	2f\	.	.	1
4FF/	5	.	.	]	.	.
4BB-/	2	4ddn/	4a-\	pp	.	2
=16	=16	=16	=16	=16	=16	=16
4EE-/)	5	4ee-/)	4g\	<	.	1
(<4E-\	.	4r	4ryy	.	.	.
4D-X\	.	4r	4ryy	[[	.	.
=17	=17	=17	=17	=17	=17	=17
2C/	1	4ree	4rg	.	.	.
!	!	!LO:TX:iB:a:t=2):odtąd można wzmocnić koloryt przez głos 4 stopowy. / Hier kann das Colorit durch eine 4 Fuſsstimme verstärkt werden.:footnote	!	!	!	!
.	.	&(<(4e-/	4r	.	3	.
4BB-/	.	[4g-X/	4d-\	.	5	2
=18	=18	=18	=18	=18	=18	=18
2AAn/	1	4g-/]	2.c\	<	.	1
.	.	4en/	.	.	4	.
4AA-/	.	[4f/	.	.	5	.
=19	=19	=19	=19	=19	=19	=19
2GG/	.	4f/]	2.B-\	.	.	2
.	.	4dn/	.	.	4	.
4GG-X/	.	[4e-/	.	[	5	.
=20	=20	=20	=20	=20	=20	=20
2.FF/	.	4e-/]	2.An\	.	.	1
.	.	4d-X/	.	>	.	.
.	.	4c/	.	.	.	.
=21	=21	=21	=21	=21	=21	=21
4BB-/	2	4d-/)	4B-\&)	]	4	2
4C/	1	4r	4ryy	.	.	.
4D-/	2	4b-/	4f\	.	5	1
=22	=22	=22	=22	=22	=22	=22
2.C/	1	(4b-/	2.e-\	<	.	2
.	.	4g/	.	.	4	.
.	.	[4a-/	.	.	5	.
=23	=23	=23	=23	=23	=23	=23
2.BB-/	.	4a-/]	2.dn\	.	.	1
.	.	4f#X/	.	[	.	.
.	.	[4g/	.	.	.	.
=24	=24	=24	=24	=24	=24	=24
2.AA-/	.	4g/]	2.c\	>	.	2
.	.	4f/	.	.	.	.
.	.	4e-/	.	]]	.	.
=25	=25	=25	=25	=25	=25	=25
4GG/)	.	4g 4Bn/)	4ryy	.	5	1
4r	.	4ryy	(2ddn\	.	2	.
4Bn\	4	([4aa-\	.	<	5	.
=26	=26	=26	=26	=26	=26	=26
(<[2.e-\	2	4aa-/]	2cc\)	.	.	1
.	.	4gg/)	.	.	4	.
.	.	4r	(>(<[4g\	.	.	1
=27	=27	=27	=27	=27	=27	=27
4e-\]	.	2an/	2g\]	.	3	.
8dn\L	1	.	.	.	.	.
8c\	.	.	.	.	.	.
8B-\	.	[4ee-/	4f#X\	.	5	2
8An\J	.	.	.	.	.	.
!!linebreak:original
=28	=28	=28	=28	=28	=28	=28
[2.B-\	2	4ee-/]	2g\)	.	.	.
.	.	4ddn/)	.	.	4	.
.	.	4r	([4dn\	.	.	.
=29	=29	=29	=29	=29	=29	=29
4B-\]	.	(2en/	2d\]	.	3	.
!	!	!LO:TX:b:i:t=espress e poco riten.	!	!	!	!
8An\L	.	.	.	.	.	.
8G\	.	.	.	.	.	.
8F\	.	[4b-/	4c#X\	.	5	2
8En\J	.	.	.	.	.	.
=30	=30	=30	=30	=30	=30	=30
2F\	.	4b-/]	2dn\	.	.	1
.	.	4an/	.	.	5	.
4G\	.	4g/	[4en\	.	4 2	.
=31	=31	=31	=31	=31	=31	=31
2An\	.	2f/	4e\]	.	3_4	.
.	.	.	4dn\	.	1	.
4AAn/	.	4en/	4c#X\	.	3 2	.
=32	=32	=32	=32	=32	=32	=32
!	!	!LO:TX:a:i:t=a tempo	!	!	!	!
4Dn\)	.	4dn/)	4d\)	.	1	.
(4F\	4	4r	4ryy	.	.	.
4An\	2	4r	4ryy	.	.	.
=33	=33	=33	=33	=33	=33	=33
*	*above	*	*	*	*	*
!	!	!LO:TX:iB:a:t=3):łagodnie bez głosu 4 stopowego jak z początku. / Sanft, ohne Fuſsstimme, wie oben.:footnote	!	!LO:DY:rj	!	!
([2.dn\)	2_1	(4an/	2.f\	pp	2	1
.	.	4ff/	.	.	5	.
.	.	4ddn/	.	.	4	.
=34	=34	=34	=34	=34	=34	=34
2d\]	.	4b-/	2.en\	.	3	1
.	.	4g#X/	.	.	2	.
4c#\	3	4an/	.	.	3	.
=35	=35	=35	=35	=35	=35	=35
[2.cn\	4	4gn/	2.e-X\	.	.	2
.	.	4ee-X/	.	.	.	.
.	.	4cc/	.	.	.	.
=36	=36	=36	=36	=36	=36	=36
2c\]	.	4a-/	2.dn\	.	.	1
.	.	4f#X/	.	.	.	.
4Bn\	5	4g/	.	.	.	.
=37	=37	=37	=37	=37	=37	=37
[2.B-X\	3	4fn/	[2.d-X\	.	2 1	.
.	.	4dd-X/	.	.	5	.
.	.	4b-/	.	.	4	.
=38	=38	=38	=38	=38	=38	=38
4B-\])	.	2g/	2.d-\_	<	.	.
(4B-\	2	.	.	.	.	.
4A-\	3	4f/	.	.	.	.
=39	=39	=39	=39	=39	=39	=39
*	*below	*	*	*	*	*
2G\	1	2b-/	2.d-\_	.	.	.
4F\	3	4a-/	.	[	.	.
=40	=40	=40	=40	=40	=40	=40
4E-\	4	4g/	2.d-\]	>	5	.
4F\	.	4f/	.	.	3	.
4G\	.	[4e-/	.	]	2	.
=41	=41	=41	=41	=41	=41	=41
!	!	!	!	!LO:DY:rj	!	!
2A-\	1	4e-/])	2.c\	pp	.	.
.	.	(4cc/	.	.	.	.
4AA-/	.	4a-/	.	.	.	.
!!linebreak:original
=42	=42	=42	=42	=42	=42	=42
2.BB-/)	.	4g/	2.d-\	.	.	.
.	.	4f/	.	.	.	.
.	.	4g/	.	.	.	.
=43	=43	=43	=43	=43	=43	=43
(2.C/	.	4a-/	2.e-\	.	.	.
.	.	4ee-/	.	.	.	.
.	.	4cc/	.	.	.	.
=44	=44	=44	=44	=44	=44	=44
2.D-/	2	4b-/	2.f\	.	.	.
.	.	4a-/	.	.	.	.
.	.	4g/	.	.	.	.
=45	=45	=45	=45	=45	=45	=45
2C/	4	4cc/	2en\	.	.	2_1
.	.	4g/	.	.	3	.
4En\	2	4b-/	[4g\	.	4 2	.
=46	=46	=46	=46	=46	=46	=46
2F\	1	2a-~/	4g\]	<	3	.
.	.	.	4f\	.	1	.
4AA-/	5	4cc/	4e-X\	.	5 2	.
=47	=47	=47	=47	=47	=47	=47
2BB-/	4	4b-/	2dn\	.	4 1	.
.	.	4f/	.	.	2	.
4Dn/	2	4a-/	[4f\	.	5 3	.
=48	=48	=48	=48	=48	=48	=48
2E-\	1	2g~/)	4f\]	[	4	.
!	!	!	!	!LO:HP:t=cresc.un poco	!	!
.	.	.	4e-\	<	.	.
4GG/	5	[4b-/	4d-X\	.	5 1	.
=49	=49	=49	=49	=49	=49	=49
[2.AA-/	3	(4b-/]	[2.c\	.	.	.
.	.	4a-/	.	.	4	.
.	.	4g/	.	.	5	.
=50	=50	=50	=50	=50	=50	=50
4AA-/]	.	2.g-X/	4c\]	.	4	.
4BB-/	.	.	4d-\	.	.	2
4C/	.	.	[4e-\	.	.	3
=51	=51	=51	=51	=51	=51	=51
[2.D-\	2	[2.f/	4e-\]	.	4	.
.	.	.	4d-\	.	.	2
.	.	.	4c\	.	.	1
*	*	*v	*v	*	*	*
=52	=52	=52	=52	=52	=52
4D-\])	.	2f] 2B-/	.	.	2
(2Dn\	1	.	.	.	.
.	.	[4a- 4Bn/	.	5	1
=53	=53	=53	=53	=53	=53
*	*	*^	*	*	*
4E-\	3	2.a-/_	2c\	.	.	.
4En\	2	.	.	.	.	.
4F\	1	.	4A-\	.	.	.
=54	=54	=54	=54	=54	=54	=54
!	!	!	!	!LO:HP:t=dim.	!	!
2BB-/	5	4a-/]	[2.d-\	>	.	2
.	.	4f/	.	.	.	.
4E-\	2	4g/	.	.	.	.
=55	=55	=55	=55	=55	=55	=55
[2.AA-/	5	[2.a-/	4d-\]	.	.	.
.	.	.	4c\	>	.	1
.	.	.	4B-\	.	.	2
=56	=56	=56	=56	=56	=56	=56
2.AA-/])	.	2.a-/])	2.c\	]	.	1
*	*	*v	*v	*	*v	*v
==	==	==	==	==
*-	*-	*-	*-	*-
!!!system-decoration: {(s1,s2)}
!!!RDF**kern: > = above
!!!RDF**kern: < = below
!!!ENC: Katarzyna Serwa
!!!END: 2022-03-17
!!!ENC: Anastazja Marusiak
!!!END: 2022-03-11
